packages/Iconly/src/SettingIcon/index.svg

<svg xmlns="http://www.w3.org/2000/svg" width="24" height="24" viewBox="0 0 24 24"><g fill="none" fill-rule="evenodd" stroke="#200E32" stroke-linecap="round" stroke-linejoin="round" stroke-width="1.5" transform="translate(2.5 1.5)"><path d="M18.3066362,6.12356982 L17.6842106,5.04347829 C17.1576365,4.12955711 15.9906873,3.8142761 15.0755149,4.33867279 L15.0755149,4.33867279 C14.6398815,4.59529992 14.1200613,4.66810845 13.6306859,4.54104256 C13.1413105,4.41397667 12.7225749,4.09747295 12.4668193,3.66132725 C12.3022855,3.38410472 12.2138742,3.06835005 12.2105264,2.74599544 L12.2105264,2.74599544 C12.2253694,2.22917739 12.030389,1.72835784 11.6700024,1.3576252 C11.3096158,0.986892553 10.814514,0.777818938 10.2974829,0.778031878 L9.04347831,0.778031878 C8.53694532,0.778031878 8.05129106,0.97987004 7.69397811,1.33890085 C7.33666515,1.69793166 7.13715288,2.18454839 7.13958814,2.69107553 L7.13958814,2.69107553 C7.12457503,3.73688099 6.27245786,4.57676682 5.22654465,4.57665906 C4.90419003,4.57331126 4.58843537,4.48489995 4.31121284,4.32036615 L4.31121284,4.32036615 C3.39604054,3.79596946 2.22909131,4.11125048 1.70251717,5.02517165 L1.03432495,6.12356982 C0.508388616,7.03634945 0.819378585,8.20256183 1.72997713,8.73226549 L1.72997713,8.73226549 C2.32188101,9.07399614 2.68650982,9.70554694 2.68650982,10.3890161 C2.68650982,11.0724852 2.32188101,11.704036 1.72997713,12.0457667 L1.72997713,12.0457667 C0.820534984,12.5718952 0.509205679,13.7352837 1.03432495,14.645309 L1.03432495,14.645309 L1.6659039,15.7345539 C1.9126252,16.1797378 2.3265816,16.5082503 2.81617164,16.6473969 C3.30576167,16.7865435 3.83061824,16.7248517 4.27459956,16.4759726 L4.27459956,16.4759726 C4.71105863,16.2212969 5.23116727,16.1515203 5.71931837,16.2821523 C6.20746948,16.4127843 6.62321383,16.7330005 6.87414191,17.1716248 C7.03867571,17.4488473 7.12708702,17.764602 7.13043482,18.0869566 L7.13043482,18.0869566 C7.13043482,19.1435014 7.98693356,20.0000001 9.04347831,20.0000001 L10.2974829,20.0000001 C11.3504633,20.0000001 12.2054882,19.1490783 12.2105264,18.0961099 L12.2105264,18.0961099 C12.2080776,17.5879925 12.4088433,17.0999783 12.7681408,16.7406809 C13.1274382,16.3813834 13.6154524,16.1806176 14.1235699,16.1830664 C14.4451523,16.1916732 14.7596081,16.2797208 15.0389017,16.4393593 L15.0389017,16.4393593 C15.9516813,16.9652957 17.1178937,16.6543057 17.6475973,15.7437072 L17.6475973,15.7437072 L18.3066362,14.645309 C18.5617324,14.2074528 18.6317479,13.6859659 18.5011783,13.1963297 C18.3706086,12.7066935 18.0502282,12.2893121 17.6109841,12.0366133 L17.6109841,12.0366133 C17.17174,11.7839145 16.8513595,11.3665332 16.7207899,10.876897 C16.5902202,10.3872608 16.6602358,9.86577384 16.9153319,9.42791767 C17.0812195,9.13829096 17.3213574,8.89815312 17.6109841,8.73226549 L17.6109841,8.73226549 C18.5161253,8.20284891 18.8263873,7.04344892 18.3066362,6.13272314 L18.3066362,6.13272314 L18.3066362,6.12356982 Z"/><circle cx="9.675" cy="10.389" r="2.636"/></g></svg>

<svg xmlns="http://www.w3.org/2000/svg" viewBox="0 0 24 24">
  <g fill="none" fill-rule="evenodd" stroke="#200E32" stroke-linecap="round" stroke-linejoin="round" stroke-width="1.5" transform="translate(2.5 1.5)">
    <path d="M18.307 6.124l-.623-1.08a1.913 1.913 0 00-2.608-.705h0a1.904 1.904 0 01-2.61-.678 1.83 1.83 0 01-.255-.915h0A1.913 1.913 0 0010.297.778H9.043A1.904 1.904 0 007.14 2.691h0a1.913 1.913 0 01-1.913 1.886 1.83 1.83 0 01-.916-.257h0a1.913 1.913 0 00-2.608.705l-.669 1.099a1.913 1.913 0 00.696 2.608h0a1.913 1.913 0 010 3.314h0a1.904 1.904 0 00-.696 2.6h0l.632 1.089a1.913 1.913 0 002.609.741h0a1.895 1.895 0 012.6.696c.164.277.252.593.255.915h0c0 1.057.857 1.913 1.913 1.913h1.254c1.053 0 1.908-.85 1.914-1.904h0a1.904 1.904 0 011.913-1.913c.321.009.636.097.915.256h0a1.913 1.913 0 002.609-.695h0l.659-1.099a1.904 1.904 0 00-.696-2.608h0a1.904 1.904 0 01-.696-2.61 1.88 1.88 0 01.696-.695h0a1.913 1.913 0 00.696-2.6h0v-.008z"/>
    <circle cx="9.675" cy="10.389" r="2.636"/>
  </g>
</svg>
